icons/haskellconfig.svg

<svg xmlns="http://www.w3.org/2000/svg" viewBox="0 0 16 16"><path fill="#ff8a65" d="m1 13 3.294-5L1 3h2.471l3.294 5-3.294 5zm3.294 0 3.294-5-3.294-5h2.471l6.588 10h-2.471L8.824 9.875 6.765 13zm7.961-2.916-1.1-1.667H15v1.667zm-1.647-2.5L9.51 5.918H15v1.666z" data-iconColor="Haskell Config"/></svg>

<!--
  - The MIT License (MIT)
  -
  - Copyright (c) 2015-2024 Elior "Mallowigi" Boukhobza
  -
  - Permission is hereby granted, free of charge, to any person obtaining a copy
  - of this software and associated documentation files (the "Software"), to deal
  - in the Software without restriction, including without limitation the rights
  - to use, copy, modify, merge, publish, distribute, sublicense, and/or sell
  - copies of the Software, and to permit persons to whom the Software is
  - furnished to do so, subject to the following conditions:
  -
  - The above copyright notice and this permission notice shall be included in all
  - copies or substantial portions of the Software.
  -
  - THE SOFTWARE IS PROVIDED "AS IS", WITHOUT WARRANTY OF ANY KIND, EXPRESS OR
  - IMPLIED, INCLUDING BUT NOT LIMITED TO THE WARRANTIES OF MERCHANTABILITY,
  - FITNESS FOR A PARTICULAR PURPOSE AND NONINFRINGEMENT. IN NO EVENT SHALL THE
  - AUTHORS OR COPYRIGHT HOLDERS BE LIABLE FOR ANY CLAIM, DAMAGES OR OTHER
  - LIABILITY, WHETHER IN AN ACTION OF CONTRACT, TORT OR OTHERWISE, ARISING FROM,
  - OUT OF OR IN CONNECTION WITH THE SOFTWARE OR THE USE OR OTHER DEALINGS IN THE
  - SOFTWARE.
  -
  -->

<svg  xmlns="http://www.w3.org/2000/svg" width="16px" height="16px" viewBox="0 0 16 16">
  <path fill="#FF8A65" data-iconColor="Haskell Config"
        d="M1,13L4.294,8,1,3H3.471L6.765,8,3.471,13H1Zm3.294,0L7.588,8,4.294,3H6.765l6.588,10H10.882L8.824,9.875,6.765,13H4.294Zm7.961-2.916-1.1-1.667H15v1.667H12.255Zm-1.647-2.5L9.51,5.918H15V7.584H10.608Z"
  />
</svg>
